( Made using CamBam - http://www.cambam.co.uk )
( 最新 1/20/2015 11:34:57 PM )
( T0 : 1.5 )
G21 G90 G64 G40
G0 Z3.0
( T0 : 1.5 )
T0 M6
( 雕刻1 )
G17
M3 S1000
G0 X-9.9319 Y2.8443
G1 F300.0 Z-0.1
G1 F800.0 Y4.6443
G3 X-11.4319 I-0.75 J-0.2973
G1 Y2.8443
G3 X-9.9319 I0.75 J0.4653
G1 F300.0 Z-0.2
G1 F800.0 Y4.6443
G3 X-11.4319 I-0.75 J-0.2973
G1 Y2.8443
G3 X-9.9319 I0.75 J0.4653
G1 F300.0 Z-0.3
G1 F800.0 Y4.6443
G3 X-11.4319 I-0.75 J-0.2973
G1 Y2.8443
G3 X-9.9319 I0.75 J0.4653
G1 F300.0 Z-0.4
G1 F800.0 Y4.6443
G3 X-11.4319 I-0.75 J-0.2973
G1 Y2.8443
G3 X-9.9319 I0.75 J0.4653
G1 F300.0 Z-0.5
G1 F800.0 Y4.6443
G3 X-11.4319 I-0.75 J-0.2973
G1 Y2.8443
G3 X-9.9319 I0.75 J0.4653
G1 F300.0 Z-0.6
G1 F800.0 Y4.6443
G3 X-11.4319 I-0.75 J-0.2973
G1 Y2.8443
G3 X-9.9319 I0.75 J0.4653
G1 F300.0 Z-0.7
G1 F800.0 Y4.6443
G3 X-11.4319 I-0.75 J-0.2973
G1 Y2.8443
G3 X-9.9319 I0.75 J0.4653
G1 F300.0 Z-0.8
G1 F800.0 Y4.6443
G3 X-11.4319 I-0.75 J-0.2973
G1 Y2.8443
G3 X-9.9319 I0.75 J0.4653
G1 F300.0 Z-0.9
G1 F800.0 Y4.6443
G3 X-11.4319 I-0.75 J-0.2973
G1 Y2.8443
G3 X-9.9319 I0.75 J0.4653
G1 F300.0 Z-1.0
G1 F800.0 Y4.6443
G3 X-11.4319 I-0.75 J-0.2973
G1 Y2.8443
G3 X-9.9319 I0.75 J0.4653
G1 F300.0 Z-1.1
G1 F800.0 Y4.6443
G3 X-11.4319 I-0.75 J-0.2973
G1 Y2.8443
G3 X-9.9319 I0.75 J0.4653
G1 F300.0 Z-1.2
G1 F800.0 Y4.6443
G3 X-11.4319 I-0.75 J-0.2973
G1 Y2.8443
G3 X-9.9319 I0.75 J0.4653
G1 F300.0 Z-1.3
G1 F800.0 Y4.6443
G3 X-11.4319 I-0.75 J-0.2973
G1 Y2.8443
G3 X-9.9319 I0.75 J0.4653
G1 F300.0 Z-1.4
G1 F800.0 Y4.6443
G3 X-11.4319 I-0.75 J-0.2973
G1 Y2.8443
G3 X-9.9319 I0.75 J0.4653
G0 Z3.0
G0 X-15.3384 Y3.629
G1 F300.0 Z-0.1
G1 F800.0 Y6.029
G1 X-18.3384
G1 Y3.629
G1 X-15.3384
G1 F300.0 Z-0.2
G1 F800.0 Y6.029
G1 X-18.3384
G1 Y3.629
G1 X-15.3384
G1 F300.0 Z-0.3
G1 F800.0 Y6.029
G1 X-18.3384
G1 Y3.629
G1 X-15.3384
G1 F300.0 Z-0.4
G1 F800.0 Y6.029
G1 X-18.3384
G1 Y3.629
G1 X-15.3384
G1 F300.0 Z-0.5
G1 F800.0 Y6.029
G1 X-18.3384
G1 Y3.629
G1 X-15.3384
G1 F300.0 Z-0.6
G1 F800.0 Y6.029
G1 X-18.3384
G1 Y3.629
G1 X-15.3384
G1 F300.0 Z-0.7
G1 F800.0 Y6.029
G1 X-18.3384
G1 Y3.629
G1 X-15.3384
G1 F300.0 Z-0.8
G1 F800.0 Y6.029
G1 X-18.3384
G1 Y3.629
G1 X-15.3384
G1 F300.0 Z-0.9
G1 F800.0 Y6.029
G1 X-18.3384
G1 Y3.629
G1 X-15.3384
G1 F300.0 Z-1.0
G1 F800.0 Y6.029
G1 X-18.3384
G1 Y3.629
G1 X-15.3384
G1 F300.0 Z-1.1
G1 F800.0 Y6.029
G1 X-18.3384
G1 Y3.629
G1 X-15.3384
G1 F300.0 Z-1.2
G1 F800.0 Y6.029
G1 X-18.3384
G1 Y3.629
G1 X-15.3384
G1 F300.0 Z-1.3
G1 F800.0 Y6.029
G1 X-18.3384
G1 Y3.629
G1 X-15.3384
G1 F300.0 Z-1.4
G1 F800.0 Y6.029
G1 X-18.3384
G1 Y3.629
G1 X-15.3384
G0 Z3.0
G0 X-16.0229 Y9.4082
G1 F300.0 Z-0.1
G1 F800.0 Y15.8082
G1 X-19.3229
G1 Y9.4082
G1 X-16.0229
G1 F300.0 Z-0.2
G1 F800.0 Y15.8082
G1 X-19.3229
G1 Y9.4082
G1 X-16.0229
G1 F300.0 Z-0.3
G1 F800.0 Y15.8082
G1 X-19.3229
G1 Y9.4082
G1 X-16.0229
G1 F300.0 Z-0.4
G1 F800.0 Y15.8082
G1 X-19.3229
G1 Y9.4082
G1 X-16.0229
G1 F300.0 Z-0.5
G1 F800.0 Y15.8082
G1 X-19.3229
G1 Y9.4082
G1 X-16.0229
G1 F300.0 Z-0.6
G1 F800.0 Y15.8082
G1 X-19.3229
G1 Y9.4082
G1 X-16.0229
G1 F300.0 Z-0.7
G1 F800.0 Y15.8082
G1 X-19.3229
G1 Y9.4082
G1 X-16.0229
G1 F300.0 Z-0.8
G1 F800.0 Y15.8082
G1 X-19.3229
G1 Y9.4082
G1 X-16.0229
G1 F300.0 Z-0.9
G1 F800.0 Y15.8082
G1 X-19.3229
G1 Y9.4082
G1 X-16.0229
G1 F300.0 Z-1.0
G1 F800.0 Y15.8082
G1 X-19.3229
G1 Y9.4082
G1 X-16.0229
G1 F300.0 Z-1.1
G1 F800.0 Y15.8082
G1 X-19.3229
G1 Y9.4082
G1 X-16.0229
G1 F300.0 Z-1.2
G1 F800.0 Y15.8082
G1 X-19.3229
G1 Y9.4082
G1 X-16.0229
G1 F300.0 Z-1.3
G1 F800.0 Y15.8082
G1 X-19.3229
G1 Y9.4082
G1 X-16.0229
G1 F300.0 Z-1.4
G1 F800.0 Y15.8082
G1 X-19.3229
G1 Y9.4082
G1 X-16.0229
G0 Z3.0
G0 X-11.1572 Y10.3946
G1 F300.0 Z-0.1
G3 F800.0 X-10.9171 Y10.0609 I0.49 J0.0993
G3 X-10.1671 Y10.4939 I0.25 J0.433
G3 X-10.9171 Y10.927 I-0.5 J0.0
G3 X-11.1572 Y10.3946 I0.25 J-0.433
G1 F300.0 Z-0.2
G3 F800.0 X-10.9171 Y10.0609 I0.49 J0.0993
G3 X-10.1671 Y10.4939 I0.25 J0.433
G3 X-10.9171 Y10.927 I-0.5 J0.0
G3 X-11.1572 Y10.3946 I0.25 J-0.433
G1 F300.0 Z-0.3
G3 F800.0 X-10.9171 Y10.0609 I0.49 J0.0993
G3 X-10.1671 Y10.4939 I0.25 J0.433
G3 X-10.9171 Y10.927 I-0.5 J0.0
G3 X-11.1572 Y10.3946 I0.25 J-0.433
G1 F300.0 Z-0.4
G3 F800.0 X-10.9171 Y10.0609 I0.49 J0.0993
G3 X-10.1671 Y10.4939 I0.25 J0.433
G3 X-10.9171 Y10.927 I-0.5 J0.0
G3 X-11.1572 Y10.3946 I0.25 J-0.433
G1 F300.0 Z-0.5
G3 F800.0 X-10.9171 Y10.0609 I0.49 J0.0993
G3 X-10.1671 Y10.4939 I0.25 J0.433
G3 X-10.9171 Y10.927 I-0.5 J0.0
G3 X-11.1572 Y10.3946 I0.25 J-0.433
G1 F300.0 Z-0.6
G3 F800.0 X-10.9171 Y10.0609 I0.49 J0.0993
G3 X-10.1671 Y10.4939 I0.25 J0.433
G3 X-10.9171 Y10.927 I-0.5 J0.0
G3 X-11.1572 Y10.3946 I0.25 J-0.433
G1 F300.0 Z-0.7
G3 F800.0 X-10.9171 Y10.0609 I0.49 J0.0993
G3 X-10.1671 Y10.4939 I0.25 J0.433
G3 X-10.9171 Y10.927 I-0.5 J0.0
G3 X-11.1572 Y10.3946 I0.25 J-0.433
G1 F300.0 Z-0.8
G3 F800.0 X-10.9171 Y10.0609 I0.49 J0.0993
G3 X-10.1671 Y10.4939 I0.25 J0.433
G3 X-10.9171 Y10.927 I-0.5 J0.0
G3 X-11.1572 Y10.3946 I0.25 J-0.433
G1 F300.0 Z-0.9
G3 F800.0 X-10.9171 Y10.0609 I0.49 J0.0993
G3 X-10.1671 Y10.4939 I0.25 J0.433
G3 X-10.9171 Y10.927 I-0.5 J0.0
G3 X-11.1572 Y10.3946 I0.25 J-0.433
G1 F300.0 Z-1.0
G3 F800.0 X-10.9171 Y10.0609 I0.49 J0.0993
G3 X-10.1671 Y10.4939 I0.25 J0.433
G3 X-10.9171 Y10.927 I-0.5 J0.0
G3 X-11.1572 Y10.3946 I0.25 J-0.433
G1 F300.0 Z-1.1
G3 F800.0 X-10.9171 Y10.0609 I0.49 J0.0993
G3 X-10.1671 Y10.4939 I0.25 J0.433
G3 X-10.9171 Y10.927 I-0.5 J0.0
G3 X-11.1572 Y10.3946 I0.25 J-0.433
G1 F300.0 Z-1.2
G3 F800.0 X-10.9171 Y10.0609 I0.49 J0.0993
G3 X-10.1671 Y10.4939 I0.25 J0.433
G3 X-10.9171 Y10.927 I-0.5 J0.0
G3 X-11.1572 Y10.3946 I0.25 J-0.433
G1 F300.0 Z-1.3
G3 F800.0 X-10.9171 Y10.0609 I0.49 J0.0993
G3 X-10.1671 Y10.4939 I0.25 J0.433
G3 X-10.9171 Y10.927 I-0.5 J0.0
G3 X-11.1572 Y10.3946 I0.25 J-0.433
G1 F300.0 Z-1.4
G3 F800.0 X-10.9171 Y10.0609 I0.49 J0.0993
G3 X-10.1671 Y10.4939 I0.25 J0.433
G3 X-10.9171 Y10.927 I-0.5 J0.0
G3 X-11.1572 Y10.3946 I0.25 J-0.433
( 雕刻2 )
S1000
G0 Z3.0
G0 X35.4057 Y-3.8566
G1 F300.0 Z-0.1
G1 F800.0 Y-5.6566
G3 X36.9057 I0.75 J0.8119
G1 Y-3.8566
G3 X35.4057 I-0.75 J-0.6518
G1 F300.0 Z-0.2
G1 F800.0 Y-5.6566
G3 X36.9057 I0.75 J0.8119
G1 Y-3.8566
G3 X35.4057 I-0.75 J-0.6518
G1 F300.0 Z-0.3
G1 F800.0 Y-5.6566
G3 X36.9057 I0.75 J0.8119
G1 Y-3.8566
G3 X35.4057 I-0.75 J-0.6518
G1 F300.0 Z-0.4
G1 F800.0 Y-5.6566
G3 X36.9057 I0.75 J0.8119
G1 Y-3.8566
G3 X35.4057 I-0.75 J-0.6518
G1 F300.0 Z-0.5
G1 F800.0 Y-5.6566
G3 X36.9057 I0.75 J0.8119
G1 Y-3.8566
G3 X35.4057 I-0.75 J-0.6518
G1 F300.0 Z-0.6
G1 F800.0 Y-5.6566
G3 X36.9057 I0.75 J0.8119
G1 Y-3.8566
G3 X35.4057 I-0.75 J-0.6518
G1 F300.0 Z-0.7
G1 F800.0 Y-5.6566
G3 X36.9057 I0.75 J0.8119
G1 Y-3.8566
G3 X35.4057 I-0.75 J-0.6518
G1 F300.0 Z-0.8
G1 F800.0 Y-5.6566
G3 X36.9057 I0.75 J0.8119
G1 Y-3.8566
G3 X35.4057 I-0.75 J-0.6518
G1 F300.0 Z-0.9
G1 F800.0 Y-5.6566
G3 X36.9057 I0.75 J0.8119
G1 Y-3.8566
G3 X35.4057 I-0.75 J-0.6518
G1 F300.0 Z-1.0
G1 F800.0 Y-5.6566
G3 X36.9057 I0.75 J0.8119
G1 Y-3.8566
G3 X35.4057 I-0.75 J-0.6518
G1 F300.0 Z-1.1
G1 F800.0 Y-5.6566
G3 X36.9057 I0.75 J0.8119
G1 Y-3.8566
G3 X35.4057 I-0.75 J-0.6518
G1 F300.0 Z-1.2
G1 F800.0 Y-5.6566
G3 X36.9057 I0.75 J0.8119
G1 Y-3.8566
G3 X35.4057 I-0.75 J-0.6518
G1 F300.0 Z-1.3
G1 F800.0 Y-5.6566
G3 X36.9057 I0.75 J0.8119
G1 Y-3.8566
G3 X35.4057 I-0.75 J-0.6518
G1 F300.0 Z-1.4
G1 F800.0 Y-5.6566
G3 X36.9057 I0.75 J0.8119
G1 Y-3.8566
G3 X35.4057 I-0.75 J-0.6518
G0 Z3.0
G0 X36.0798 Y-0.5005
G1 F300.0 Z-0.1
G3 F800.0 X36.6782 Y-0.0103 I0.0985 J0.4902
G3 X35.9282 Y0.4227 I-0.5 J0.0
G3 Y-0.4433 I0.25 J-0.433
G3 X36.0798 Y-0.5005 I0.25 J0.433
G1 F300.0 Z-0.2
G3 F800.0 X36.6782 Y-0.0103 I0.0985 J0.4902
G3 X35.9282 Y0.4227 I-0.5 J0.0
G3 Y-0.4433 I0.25 J-0.433
G3 X36.0798 Y-0.5005 I0.25 J0.433
G1 F300.0 Z-0.3
G3 F800.0 X36.6782 Y-0.0103 I0.0985 J0.4902
G3 X35.9282 Y0.4227 I-0.5 J0.0
G3 Y-0.4433 I0.25 J-0.433
G3 X36.0798 Y-0.5005 I0.25 J0.433
G1 F300.0 Z-0.4
G3 F800.0 X36.6782 Y-0.0103 I0.0985 J0.4902
G3 X35.9282 Y0.4227 I-0.5 J0.0
G3 Y-0.4433 I0.25 J-0.433
G3 X36.0798 Y-0.5005 I0.25 J0.433
G1 F300.0 Z-0.5
G3 F800.0 X36.6782 Y-0.0103 I0.0985 J0.4902
G3 X35.9282 Y0.4227 I-0.5 J0.0
G3 Y-0.4433 I0.25 J-0.433
G3 X36.0798 Y-0.5005 I0.25 J0.433
G1 F300.0 Z-0.6
G3 F800.0 X36.6782 Y-0.0103 I0.0985 J0.4902
G3 X35.9282 Y0.4227 I-0.5 J0.0
G3 Y-0.4433 I0.25 J-0.433
G3 X36.0798 Y-0.5005 I0.25 J0.433
G1 F300.0 Z-0.7
G3 F800.0 X36.6782 Y-0.0103 I0.0985 J0.4902
G3 X35.9282 Y0.4227 I-0.5 J0.0
G3 Y-0.4433 I0.25 J-0.433
G3 X36.0798 Y-0.5005 I0.25 J0.433
G1 F300.0 Z-0.8
G3 F800.0 X36.6782 Y-0.0103 I0.0985 J0.4902
G3 X35.9282 Y0.4227 I-0.5 J0.0
G3 Y-0.4433 I0.25 J-0.433
G3 X36.0798 Y-0.5005 I0.25 J0.433
G1 F300.0 Z-0.9
G3 F800.0 X36.6782 Y-0.0103 I0.0985 J0.4902
G3 X35.9282 Y0.4227 I-0.5 J0.0
G3 Y-0.4433 I0.25 J-0.433
G3 X36.0798 Y-0.5005 I0.25 J0.433
G1 F300.0 Z-1.0
G3 F800.0 X36.6782 Y-0.0103 I0.0985 J0.4902
G3 X35.9282 Y0.4227 I-0.5 J0.0
G3 Y-0.4433 I0.25 J-0.433
G3 X36.0798 Y-0.5005 I0.25 J0.433
G1 F300.0 Z-1.1
G3 F800.0 X36.6782 Y-0.0103 I0.0985 J0.4902
G3 X35.9282 Y0.4227 I-0.5 J0.0
G3 Y-0.4433 I0.25 J-0.433
G3 X36.0798 Y-0.5005 I0.25 J0.433
G1 F300.0 Z-1.2
G3 F800.0 X36.6782 Y-0.0103 I0.0985 J0.4902
G3 X35.9282 Y0.4227 I-0.5 J0.0
G3 Y-0.4433 I0.25 J-0.433
G3 X36.0798 Y-0.5005 I0.25 J0.433
G1 F300.0 Z-1.3
G3 F800.0 X36.6782 Y-0.0103 I0.0985 J0.4902
G3 X35.9282 Y0.4227 I-0.5 J0.0
G3 Y-0.4433 I0.25 J-0.433
G3 X36.0798 Y-0.5005 I0.25 J0.433
G1 F300.0 Z-1.4
G3 F800.0 X36.6782 Y-0.0103 I0.0985 J0.4902
G3 X35.9282 Y0.4227 I-0.5 J0.0
G3 Y-0.4433 I0.25 J-0.433
G3 X36.0798 Y-0.5005 I0.25 J0.433
G0 Z3.0
G0 X43.1779 Y4.5927
G1 F300.0 Z-0.1
G1 F800.0 X47.2779
G1 Y25.3927
G1 X43.1779
G1 Y4.5927
G1 F300.0 Z-0.2
G1 F800.0 X47.2779
G1 Y25.3927
G1 X43.1779
G1 Y4.5927
G1 F300.0 Z-0.3
G1 F800.0 X47.2779
G1 Y25.3927
G1 X43.1779
G1 Y4.5927
G1 F300.0 Z-0.4
G1 F800.0 X47.2779
G1 Y25.3927
G1 X43.1779
G1 Y4.5927
G1 F300.0 Z-0.5
G1 F800.0 X47.2779
G1 Y25.3927
G1 X43.1779
G1 Y4.5927
G1 F300.0 Z-0.6
G1 F800.0 X47.2779
G1 Y25.3927
G1 X43.1779
G1 Y4.5927
G1 F300.0 Z-0.7
G1 F800.0 X47.2779
G1 Y25.3927
G1 X43.1779
G1 Y4.5927
G1 F300.0 Z-0.8
G1 F800.0 X47.2779
G1 Y25.3927
G1 X43.1779
G1 Y4.5927
G1 F300.0 Z-0.9
G1 F800.0 X47.2779
G1 Y25.3927
G1 X43.1779
G1 Y4.5927
G1 F300.0 Z-1.0
G1 F800.0 X47.2779
G1 Y25.3927
G1 X43.1779
G1 Y4.5927
G1 F300.0 Z-1.1
G1 F800.0 X47.2779
G1 Y25.3927
G1 X43.1779
G1 Y4.5927
G1 F300.0 Z-1.2
G1 F800.0 X47.2779
G1 Y25.3927
G1 X43.1779
G1 Y4.5927
G1 F300.0 Z-1.3
G1 F800.0 X47.2779
G1 Y25.3927
G1 X43.1779
G1 Y4.5927
G1 F300.0 Z-1.4
G1 F800.0 X47.2779
G1 Y25.3927
G1 X43.1779
G1 Y4.5927
( 雕刻3 )
S1000
G0 Z3.0
G0 X35.6936 Y-51.4596
G1 F300.0 Z-0.1
G3 F800.0 X35.51 Y-51.6243 I0.5663 J-0.8165
G1 Y-53.4243
G3 X37.01 I0.75 J0.8119
G1 Y-51.6243
G3 X35.6936 Y-51.4596 I-0.75 J-0.6518
G1 F300.0 Z-0.2
G3 F800.0 X35.51 Y-51.6243 I0.5663 J-0.8165
G1 Y-53.4243
G3 X37.01 I0.75 J0.8119
G1 Y-51.6243
G3 X35.6936 Y-51.4596 I-0.75 J-0.6518
G1 F300.0 Z-0.3
G3 F800.0 X35.51 Y-51.6243 I0.5663 J-0.8165
G1 Y-53.4243
G3 X37.01 I0.75 J0.8119
G1 Y-51.6243
G3 X35.6936 Y-51.4596 I-0.75 J-0.6518
G1 F300.0 Z-0.4
G3 F800.0 X35.51 Y-51.6243 I0.5663 J-0.8165
G1 Y-53.4243
G3 X37.01 I0.75 J0.8119
G1 Y-51.6243
G3 X35.6936 Y-51.4596 I-0.75 J-0.6518
G1 F300.0 Z-0.5
G3 F800.0 X35.51 Y-51.6243 I0.5663 J-0.8165
G1 Y-53.4243
G3 X37.01 I0.75 J0.8119
G1 Y-51.6243
G3 X35.6936 Y-51.4596 I-0.75 J-0.6518
G1 F300.0 Z-0.6
G3 F800.0 X35.51 Y-51.6243 I0.5663 J-0.8165
G1 Y-53.4243
G3 X37.01 I0.75 J0.8119
G1 Y-51.6243
G3 X35.6936 Y-51.4596 I-0.75 J-0.6518
G1 F300.0 Z-0.7
G3 F800.0 X35.51 Y-51.6243 I0.5663 J-0.8165
G1 Y-53.4243
G3 X37.01 I0.75 J0.8119
G1 Y-51.6243
G3 X35.6936 Y-51.4596 I-0.75 J-0.6518
G1 F300.0 Z-0.8
G3 F800.0 X35.51 Y-51.6243 I0.5663 J-0.8165
G1 Y-53.4243
G3 X37.01 I0.75 J0.8119
G1 Y-51.6243
G3 X35.6936 Y-51.4596 I-0.75 J-0.6518
G1 F300.0 Z-0.9
G3 F800.0 X35.51 Y-51.6243 I0.5663 J-0.8165
G1 Y-53.4243
G3 X37.01 I0.75 J0.8119
G1 Y-51.6243
G3 X35.6936 Y-51.4596 I-0.75 J-0.6518
G1 F300.0 Z-1.0
G3 F800.0 X35.51 Y-51.6243 I0.5663 J-0.8165
G1 Y-53.4243
G3 X37.01 I0.75 J0.8119
G1 Y-51.6243
G3 X35.6936 Y-51.4596 I-0.75 J-0.6518
G1 F300.0 Z-1.1
G3 F800.0 X35.51 Y-51.6243 I0.5663 J-0.8165
G1 Y-53.4243
G3 X37.01 I0.75 J0.8119
G1 Y-51.6243
G3 X35.6936 Y-51.4596 I-0.75 J-0.6518
G1 F300.0 Z-1.2
G3 F800.0 X35.51 Y-51.6243 I0.5663 J-0.8165
G1 Y-53.4243
G3 X37.01 I0.75 J0.8119
G1 Y-51.6243
G3 X35.6936 Y-51.4596 I-0.75 J-0.6518
G1 F300.0 Z-1.3
G3 F800.0 X35.51 Y-51.6243 I0.5663 J-0.8165
G1 Y-53.4243
G3 X37.01 I0.75 J0.8119
G1 Y-51.6243
G3 X35.6936 Y-51.4596 I-0.75 J-0.6518
G1 F300.0 Z-1.4
G3 F800.0 X35.51 Y-51.6243 I0.5663 J-0.8165
G1 Y-53.4243
G3 X37.01 I0.75 J0.8119
G1 Y-51.6243
G3 X35.6936 Y-51.4596 I-0.75 J-0.6518
( 雕刻4 )
S1000
G0 Z3.0
G0 X-10.561 Y-59.7592
G1 F300.0 Z-0.1
G3 F800.0 X-10.898 Y-59.8186 I-0.087 J-0.4924
G3 Y-60.6846 I0.25 J-0.433
G3 X-10.148 Y-60.2516 I0.25 J0.433
G3 X-10.561 Y-59.7592 I-0.5 J0.0
G1 F300.0 Z-0.2
G3 F800.0 X-10.898 Y-59.8186 I-0.087 J-0.4924
G3 Y-60.6846 I0.25 J-0.433
G3 X-10.148 Y-60.2516 I0.25 J0.433
G3 X-10.561 Y-59.7592 I-0.5 J0.0
G1 F300.0 Z-0.3
G3 F800.0 X-10.898 Y-59.8186 I-0.087 J-0.4924
G3 Y-60.6846 I0.25 J-0.433
G3 X-10.148 Y-60.2516 I0.25 J0.433
G3 X-10.561 Y-59.7592 I-0.5 J0.0
G1 F300.0 Z-0.4
G3 F800.0 X-10.898 Y-59.8186 I-0.087 J-0.4924
G3 Y-60.6846 I0.25 J-0.433
G3 X-10.148 Y-60.2516 I0.25 J0.433
G3 X-10.561 Y-59.7592 I-0.5 J0.0
G1 F300.0 Z-0.5
G3 F800.0 X-10.898 Y-59.8186 I-0.087 J-0.4924
G3 Y-60.6846 I0.25 J-0.433
G3 X-10.148 Y-60.2516 I0.25 J0.433
G3 X-10.561 Y-59.7592 I-0.5 J0.0
G1 F300.0 Z-0.6
G3 F800.0 X-10.898 Y-59.8186 I-0.087 J-0.4924
G3 Y-60.6846 I0.25 J-0.433
G3 X-10.148 Y-60.2516 I0.25 J0.433
G3 X-10.561 Y-59.7592 I-0.5 J0.0
G1 F300.0 Z-0.7
G3 F800.0 X-10.898 Y-59.8186 I-0.087 J-0.4924
G3 Y-60.6846 I0.25 J-0.433
G3 X-10.148 Y-60.2516 I0.25 J0.433
G3 X-10.561 Y-59.7592 I-0.5 J0.0
G1 F300.0 Z-0.8
G3 F800.0 X-10.898 Y-59.8186 I-0.087 J-0.4924
G3 Y-60.6846 I0.25 J-0.433
G3 X-10.148 Y-60.2516 I0.25 J0.433
G3 X-10.561 Y-59.7592 I-0.5 J0.0
G1 F300.0 Z-0.9
G3 F800.0 X-10.898 Y-59.8186 I-0.087 J-0.4924
G3 Y-60.6846 I0.25 J-0.433
G3 X-10.148 Y-60.2516 I0.25 J0.433
G3 X-10.561 Y-59.7592 I-0.5 J0.0
G1 F300.0 Z-1.0
G3 F800.0 X-10.898 Y-59.8186 I-0.087 J-0.4924
G3 Y-60.6846 I0.25 J-0.433
G3 X-10.148 Y-60.2516 I0.25 J0.433
G3 X-10.561 Y-59.7592 I-0.5 J0.0
G1 F300.0 Z-1.1
G3 F800.0 X-10.898 Y-59.8186 I-0.087 J-0.4924
G3 Y-60.6846 I0.25 J-0.433
G3 X-10.148 Y-60.2516 I0.25 J0.433
G3 X-10.561 Y-59.7592 I-0.5 J0.0
G1 F300.0 Z-1.2
G3 F800.0 X-10.898 Y-59.8186 I-0.087 J-0.4924
G3 Y-60.6846 I0.25 J-0.433
G3 X-10.148 Y-60.2516 I0.25 J0.433
G3 X-10.561 Y-59.7592 I-0.5 J0.0
G1 F300.0 Z-1.3
G3 F800.0 X-10.898 Y-59.8186 I-0.087 J-0.4924
G3 Y-60.6846 I0.25 J-0.433
G3 X-10.148 Y-60.2516 I0.25 J0.433
G3 X-10.561 Y-59.7592 I-0.5 J0.0
G1 F300.0 Z-1.4
G3 F800.0 X-10.898 Y-59.8186 I-0.087 J-0.4924
G3 Y-60.6846 I0.25 J-0.433
G3 X-10.148 Y-60.2516 I0.25 J0.433
G3 X-10.561 Y-59.7592 I-0.5 J0.0
( 雕刻5 )
S1000
G0 Z3.0
G0 X-21.7938 Y-25.9946
G1 F300.0 Z-0.1
G3 F800.0 X-26.9349 Y-25.5459 I-2.8911 J-3.4484
G3 Y-33.3401 I2.25 J-3.8971
G3 X-20.1849 Y-29.443 I2.25 J3.8971
G3 X-21.7938 Y-25.9946 I-4.5 J0.0
G1 F300.0 Z-0.2
G3 F800.0 X-26.9349 Y-25.5459 I-2.8911 J-3.4484
G3 Y-33.3401 I2.25 J-3.8971
G3 X-20.1849 Y-29.443 I2.25 J3.8971
G3 X-21.7938 Y-25.9946 I-4.5 J0.0
G1 F300.0 Z-0.3
G3 F800.0 X-26.9349 Y-25.5459 I-2.8911 J-3.4484
G3 Y-33.3401 I2.25 J-3.8971
G3 X-20.1849 Y-29.443 I2.25 J3.8971
G3 X-21.7938 Y-25.9946 I-4.5 J0.0
G1 F300.0 Z-0.4
G3 F800.0 X-26.9349 Y-25.5459 I-2.8911 J-3.4484
G3 Y-33.3401 I2.25 J-3.8971
G3 X-20.1849 Y-29.443 I2.25 J3.8971
G3 X-21.7938 Y-25.9946 I-4.5 J0.0
G1 F300.0 Z-0.5
G3 F800.0 X-26.9349 Y-25.5459 I-2.8911 J-3.4484
G3 Y-33.3401 I2.25 J-3.8971
G3 X-20.1849 Y-29.443 I2.25 J3.8971
G3 X-21.7938 Y-25.9946 I-4.5 J0.0
G1 F300.0 Z-0.6
G3 F800.0 X-26.9349 Y-25.5459 I-2.8911 J-3.4484
G3 Y-33.3401 I2.25 J-3.8971
G3 X-20.1849 Y-29.443 I2.25 J3.8971
G3 X-21.7938 Y-25.9946 I-4.5 J0.0
G1 F300.0 Z-0.7
G3 F800.0 X-26.9349 Y-25.5459 I-2.8911 J-3.4484
G3 Y-33.3401 I2.25 J-3.8971
G3 X-20.1849 Y-29.443 I2.25 J3.8971
G3 X-21.7938 Y-25.9946 I-4.5 J0.0
G1 F300.0 Z-0.8
G3 F800.0 X-26.9349 Y-25.5459 I-2.8911 J-3.4484
G3 Y-33.3401 I2.25 J-3.8971
G3 X-20.1849 Y-29.443 I2.25 J3.8971
G3 X-21.7938 Y-25.9946 I-4.5 J0.0
G1 F300.0 Z-0.9
G3 F800.0 X-26.9349 Y-25.5459 I-2.8911 J-3.4484
G3 Y-33.3401 I2.25 J-3.8971
G3 X-20.1849 Y-29.443 I2.25 J3.8971
G3 X-21.7938 Y-25.9946 I-4.5 J0.0
G1 F300.0 Z-1.0
G3 F800.0 X-26.9349 Y-25.5459 I-2.8911 J-3.4484
G3 Y-33.3401 I2.25 J-3.8971
G3 X-20.1849 Y-29.443 I2.25 J3.8971
G3 X-21.7938 Y-25.9946 I-4.5 J0.0
G1 F300.0 Z-1.1
G3 F800.0 X-26.9349 Y-25.5459 I-2.8911 J-3.4484
G3 Y-33.3401 I2.25 J-3.8971
G3 X-20.1849 Y-29.443 I2.25 J3.8971
G3 X-21.7938 Y-25.9946 I-4.5 J0.0
G1 F300.0 Z-1.2
G3 F800.0 X-26.9349 Y-25.5459 I-2.8911 J-3.4484
G3 Y-33.3401 I2.25 J-3.8971
G3 X-20.1849 Y-29.443 I2.25 J3.8971
G3 X-21.7938 Y-25.9946 I-4.5 J0.0
G1 F300.0 Z-1.3
G3 F800.0 X-26.9349 Y-25.5459 I-2.8911 J-3.4484
G3 Y-33.3401 I2.25 J-3.8971
G3 X-20.1849 Y-29.443 I2.25 J3.8971
G3 X-21.7938 Y-25.9946 I-4.5 J0.0
G1 F300.0 Z-1.4
G3 F800.0 X-26.9349 Y-25.5459 I-2.8911 J-3.4484
G3 Y-33.3401 I2.25 J-3.8971
G3 X-20.1849 Y-29.443 I2.25 J3.8971
G3 X-21.7938 Y-25.9946 I-4.5 J0.0
G0 Z3.0
M5
M30
